X:7678
T:Trip to Nenagh, The
O:england
C:Sean Ryan
R:reel
M:C|
K:Dmix
d2AG FD~D2|A,DFA dcAG|Addc d=fed|c2Gc EcGc|
dcAG FD~D2|A,DFA dcAG|Ad~d2 ADFA|GE^CE EDD2:|
|:d2fd Adfd|geed ^cdec|d2=cA FDDE|FGAB ~=c3B|
Ad~d2 Adfd|^cdef gefg|a2ed ^cdec|d=cAG FDD2:|


